X:1
T:Andy Innes's Welcome to Kyle
M:6/8
L:1/8
Q:80
C:Iain MacFadyen
S:March
K:HP
|: A|
{Gdc}d3/2e/2{g}f{ag}a2f|
{g}e/2g3/2f{gef}e2A|
{Gdc}d3/2e/2{g}f{ag}a2g|  !
{afg}f3{gef}e2A{Gdc}d3/2e/2{g}f{ag}a2f|
{g}e/2g3/2f{gef}e2A|
{Gdc}d3/2e/2f{g}e/2g3/2f|  !
{gef}e3{Gdc}d2:| |:
A|
{gfg}f3/2{g}d/2f{g}f/2a3/2{g}a|
{fg}f3/2A/2a{fg}f2A|  !
{gfg}f3/2{g}d/2f{g}f/2a3/2{g}a|
{fg}f3{gef}e2A{gfg}f3/2{g}d/2f{g}f/2a3/2{g}a|
{fg}f3/2A/2a{fg}f2A|  !
{Gdc}d3/2e/2f{g}e/2g3/2f|
{gef}e3{Gdc}d2:| |:
A|  !
{Gdc}d3/2e/2d{g}d2{GBG}A|
{ag}a3/2e/2f{g}d2{GBG}A|
{Gdc}d3/2e/2d{gdG}d2g|  !
{afg}f3{gef}e2A{Gdc}d3/2e/2d{g}d2{GBG}A|
{ag}a3/2e/2f{g}d2{GBG}A|
{Gdc}d3/2e/2f{g}e/2g3/2f|  !
{gef}e3{Gdc}d2:| |:
A|
{gfg}f3/2{g}e/2g{a}f/2a3/2{g}a|
{fg}f3/2A/2a{fg}f2A|  !
{gfg}f3/2{g}d/2f{g}f/2a3/2{g}a|
{fg}f3{gef}e2A{gfg}f3/2{g}e/2g{a}f/2a3/2{g}a|
{fg}f3/2A/2a{fg}f2A|  !
{Gdc}d3/2e/2f{g}e/2g3/2f|
{gef}e3{Gdc}d2:|

